X:1
T:Title
%%score { 1 | 2 }
L:1/8
M:4/4
K:Bb
V:1 treble nm="Grand Piano"
V:2 bass 
V:1
 z4 z2 z[Q:1/4=86] [DF] | [DF][Fd][FB][FA] [EG] [GB]2 G | FGFE D3 [DF] | %3
 [DF][Fd][FB][FA] [EG] [GB]2 G | FBAc [DB]3 [DF] | [EG][GB][FA][EG] [DF] [DB]2 [DB] | ddcB c3 F | %7
 [DF][Fd][FB][FA] [EG] [GB]2 G |[M:7/8] FBA c [DB]3 |[M:1/8] [DB] |[M:4/4] c2 FF [Dd]2 [DB][DB] | %11
 [EG][EG][FA][FB] [Fc]3 [EF] | [DF][Fd][FB][FA] G B2 G |[M:7/8] FBA c [DFB]3 |] %14
V:2
 z4 z2 z [B,,B,] | [B,,B,][B,,B,][D,B,][D,B,] [E,B,] [E,B,]2 [E,B,E] | %2
 [F,B,D][F,E][F,G,D][F,A,C] [B,,B,]3 [B,,B,] | [B,,B,][B,,B,][D,B,][D,B,] [E,B,] [E,B,]2 [E,B,E] | %4
 [F,B,D][F,D][F,C][F,E] [B,,F,]3 [B,,B,] | [E,B,][E,B,][E,B,][E,B,] [B,,B,] [B,,F,]2 [B,,F,] | %6
 [B,F][B,F][A,CF][K:bass][G,C=E] [F,A,_E]3 [F,A,E] | %7
 [B,,B,][B,,B,][D,B,][D,B,] [E,B,] [E,B,]2 [E,B,E] |[M:7/8] [F,B,D][F,D][F,C] [F,E] [B,,F,]3 | %9
[M:1/8] [B,,F,] |[M:4/4] [F,A,E]2 [F,A,E][F,A,E] [B,,B,]2 [B,,F,][B,,B,] | %11
 [E,B,][E,B,][E,C][D,B,] [F,A,]3 [F,A,] | [B,,B,][B,,B,][D,B,][D,B,] [E,B,E] [E,G,E]2 [E,B,E] | %13
[M:7/8] [F,B,D][F,DF][F,CF] [F,EF] B,,3 |] %14

